public/images/documents.svg

<svg width="24" height="24" fill="none" xmlns="http://www.w3.org/2000/svg"><path d="M20.67 14.62c-.84 3.61-2.5 5.06-5.61 4.77-.5-.04-1.05-.14-1.63-.27l-1.68-.4c-4.17-.99-5.45-3.06-4.48-7.23l.98-4.2c.21-.84.44-1.59.75-2.19 1.16-2.42 3.16-3.08 6.5-2.29l1.66.39c4.19.98 5.48 3.05 4.5 7.23l-.99 4.19z" stroke="#1B31FF" stroke-width="1.5" stroke-linejoin="round"/><path d="m12.71 20.47-1.58.52c-3.97 1.28-6.06.21-7.35-3.76L2.5 13.28C1.22 9.31 2.28 7.2 6.25 5.93l1.58-.52c.41-.13.8-.25 1.17-.31-.3.6-.54 1.35-.75 2.2l-.97 4.19c-.98 4.17.3 6.24 4.47 7.23l1.68.4c.58.14 1.13.23 1.63.27-.63.42-1.4.77-2.35 1.08z" stroke="#1B31FF" stroke-width="1.5" stroke-linejoin="round"/><path d="m12.64 8.52 4.85 1.23M11.66 12.39l2.9.75" stroke="#1B31FF" stroke-width="1.5" stroke-linejoin="round" stroke-linecap="round"/></svg>

<svg width="24.000000" height="24.000000" viewBox="0 0 24 24" fill="none" xmlns="http://www.w3.org/2000/svg" xmlns:xlink="http://www.w3.org/1999/xlink">
	<desc>
			Created with Pixso.
	</desc>
	<defs/>
	<path id="Vector" d="M20.67 14.62C19.83 18.23 18.17 19.68 15.06 19.39C14.56 19.35 14.01 19.25 13.43 19.12L11.75 18.72C7.58 17.73 6.3 15.66 7.27 11.49L8.25 7.29C8.46 6.45 8.69 5.7 9 5.1C10.16 2.68 12.16 2.02 15.5 2.81L17.16 3.2C21.35 4.18 22.64 6.25 21.66 10.43L20.67 14.62Z" stroke="#1B31FF" stroke-opacity="1.000000" stroke-width="1.500000" stroke-linejoin="round"/>
	<path id="Vector" d="M12.71 20.47L11.13 20.99C7.16 22.27 5.07 21.2 3.78 17.23L2.5 13.28C1.22 9.31 2.28 7.2 6.25 5.93L7.83 5.41C8.24 5.28 8.63 5.16 9 5.1C8.7 5.7 8.46 6.45 8.25 7.3L7.28 11.49C6.3 15.66 7.58 17.73 11.75 18.72L13.43 19.12C14.01 19.26 14.56 19.35 15.06 19.39C14.43 19.81 13.66 20.16 12.71 20.47Z" stroke="#1B31FF" stroke-opacity="1.000000" stroke-width="1.500000" stroke-linejoin="round"/>
	<path id="Vector" d="M12.64 8.52L17.49 9.75" stroke="#1B31FF" stroke-opacity="1.000000" stroke-width="1.500000" stroke-linejoin="round" stroke-linecap="round"/>
	<path id="Vector" d="M11.66 12.39L14.56 13.14" stroke="#1B31FF" stroke-opacity="1.000000" stroke-width="1.500000" stroke-linejoin="round" stroke-linecap="round"/>
	<g opacity="0.000000"/>
</svg>
